X: 29
T: Mike in the Wilderness
B: canberra pickers and fiddlers
B: tunes
M:C|
L:1/8
R: reel
Q: 1/4=100
K:Amixolydian
V:1 
[A,2E2]a2 abae|[A,2E2]g2 gagd|[A,2E2]a2a2-a3b|aged cAB^G:| 
|:[A,2E2]"+"e2[A,4E]|cAcA BcB^G| E2"+"e2[A,4E4]|1gfed cAB^G:|2 gfed cAEF||
|:[A,2E2] cA B2 BB|A2 Ac BA^GE|[A,2E2]cA B2g2|fded cAB^G:|
% abcbook-tune_id 63da59342f54b64ad8fe82cb
% abcbook-tune_composer_id 
% abcbook-link-0 https://www.youtube.com/watch?v=y43hX8Bng_Y
% abcbook-link-title-0 Mike in the Wilderness
% abcbook-link-start-at-0 8
% abcbook-link-1 https://www.youtube.com/watch?v=_ahLMNfFZjc
% abcbook-boost 5
% abcbook-difficulty 0
% abcbook-tags canberra pickers and fiddlers,old time tunes,© free
% abcbook-tablature 
% abcbook-transpose 
% abcbook-tuning AEAE
% abcbook-lastupdated 1738973946181
% abcbook-src-url https://tunebook.net/scrape/tunes.abc
% abcbook-soundfonts 
% abcbook-repeats 1
%%gchordfont "itim-music,Itim" 20

